X: 2392
T: HORNPIPE
R: Hornpipe.
%R: hornpipe, reel
B: James Kerr "Merry Melodies" v.2 p.44 #392
Z: 2016 John Chambers <jc:trillian.mit.edu>
M: C
L: 1/8
K: Bb	% and Gm
|:\
dbca BgAf | GeFd EcDB | F2(GA) \
[1,3 BdcB | ABcd efga :|\
[2,4 BdcA | B2d2B2 :|
|:\
G>g (3g^fg b>g (3gfg | d>^cd>e d>cB>A |\
[1,3 G>AB>c d>cB>A | G>AB>c d>cA>^F :|\
[2,4 G>AB>c d>cA>^F | G>BA>^F G2 :|
